!!!OTL: HOPP MARJAENCHE
!!!ARE: Europa, Mitteleuropa, Deutschland, Rheinland
!!!SCT: E1833
!!!YEM: Copyright 1995, estate of Helmut Schaffrath.
**kern
*ICvox
*Ivox
*M6/8
*k[f#]
*G:
=1
{4b
8g
8g
8f#
8g
=2
4b
8g
8g
8f#
8g}
=3
{4a
8a
8a
8b
8cc
=4
4ee
8dd
4dd}
{8b
=5
4b
8g
8g
8f#
8g
=6
4b
8g
8g
8f#}
{8g
=7
8a
8b
8cc
8d
8e
8f#
=8
4.a
4g
8r}
==
!!!AGN: Kinder - Lied, Tanz
!!!ONB: ESAC (Essen Associative Code) Database: ERK3
!!!AMT: compound duple
!!!AIN: vox
!!!EED: Helmut Schaffrath
!!!EEV: 1.0
*-
